X: 1
T:Yacht Club -- Reel
M:2/4
L:1/16
R:reel
B:Ryan's Mammoth Collection
N:361
Z:Contributed by Ray Davies,  ray:davies99.freeserve.co.uk
K:G
uD2|\
(DG).G.B (AG).E.G | (DG).G.B "4"e4  | vd2(gf) edcB |\
 cBc"4"e dBAG |
(DG).G.B "4"(AG).E.G | (DG).G.B "4"e4  | d2(gf) edcB |\
 dcAB G2  :|
|:uG2|\
g2gg (gb).a.g | (fd).d.d u(d3.B)  | cBcd "4"e2(c"4"e) |\
 (ag).f.e d4  |
.G(gfg) .e(gfg) | .d(gfg) .b(gfg) | dgfe dcBA | G2G2G2 :|
